src/icons/instagram.svg

<svg width="28" height="29" viewBox="0 0 28 29" xmlns="http://www.w3.org/2000/svg">
  <path d="M13.4995 11.005C11.5646 11.005 10.0047 12.58 10.0047 14.5C10.0047 16.42 11.5796 17.995 13.4995 17.995C15.4194 17.995 16.9944 16.42 16.9944 14.5C16.9944 12.58 15.4194 11.005 13.4995 11.005ZM23.9991 14.5C23.9991 13.045 23.9991 11.62 23.9241 10.165C23.8491 8.485 23.4591 6.985 22.2291 5.77C20.9992 4.54 19.5143 4.15 17.8343 4.075C16.3794 4 14.9545 4 13.4995 4C12.0446 4 10.6197 4 9.16472 4.075C7.4848 4.15 5.98487 4.54 4.76992 5.77C3.53998 7 3.14999 8.485 3.075 10.165C3 11.62 3 13.045 3 14.5C3 15.955 3 17.38 3.075 18.835C3.14999 20.515 3.53998 22.015 4.76992 23.23C5.99987 24.46 7.4848 24.85 9.16472 24.925C10.6197 25 12.0446 25 13.4995 25C14.9545 25 16.3794 25 17.8343 24.925C19.5143 24.85 21.0142 24.46 22.2291 23.23C23.4591 22 23.8491 20.515 23.9241 18.835C24.0141 17.395 23.9991 15.955 23.9991 14.5ZM13.4995 19.885C10.5147 19.885 8.11477 17.485 8.11477 14.5C8.11477 11.515 10.5147 9.115 13.4995 9.115C16.4844 9.115 18.8843 11.515 18.8843 14.5C18.8843 17.485 16.4844 19.885 13.4995 19.885ZM19.1093 10.15C18.4193 10.15 17.8493 9.595 17.8493 8.89C17.8493 8.185 18.4043 7.63 19.1093 7.63C19.8142 7.63 20.3692 8.185 20.3692 8.89C20.373 9.0543 20.343 9.21764 20.2811 9.36987C20.2192 9.52211 20.1266 9.66 20.0092 9.775C19.8942 9.89241 19.7564 9.98495 19.6041 10.0469C19.4519 10.1088 19.2886 10.1388 19.1243 10.135L19.1093 10.15Z" />
</svg>

<svg xmlns="http://www.w3.org/2000/svg" width="28" height="29">
  <path d="M13.5 11.005a3.498 3.498 0 0 0-3.495 3.495 3.508 3.508 0 0 0 3.494 3.495 3.508 3.508 0 0 0 3.495-3.495 3.508 3.508 0 0 0-3.495-3.495ZM24 14.5c0-1.455 0-2.88-.076-4.335-.075-1.68-.465-3.18-1.695-4.395-1.23-1.23-2.715-1.62-4.395-1.695C16.38 4 14.954 4 13.5 4c-1.454 0-2.88 0-4.334.075-1.68.075-3.18.465-4.395 1.695C3.54 7 3.15 8.485 3.075 10.165 3 11.62 3 13.045 3 14.5s0 2.88.075 4.335c.075 1.68.465 3.18 1.695 4.395 1.23 1.23 2.715 1.62 4.395 1.695C10.62 25 12.045 25 13.5 25c1.454 0 2.88 0 4.334-.075 1.68-.075 3.18-.465 4.395-1.695 1.23-1.23 1.62-2.715 1.695-4.395.09-1.44.075-2.88.075-4.335Zm-10.5 5.385A5.37 5.37 0 0 1 8.114 14.5a5.37 5.37 0 0 1 5.384-5.385 5.37 5.37 0 0 1 5.385 5.385 5.37 5.37 0 0 1-5.385 5.385Zm5.61-9.735c-.69 0-1.26-.555-1.26-1.26s.554-1.26 1.26-1.26c.704 0 1.26.555 1.26 1.26a1.2 1.2 0 0 1-.36.885 1.2 1.2 0 0 1-.886.36l-.015.015Z"/>
</svg>
